source/img/icons/main-header-interior.svg

<svg width="41" height="62" viewBox="0 0 41 62" xmlns="http://www.w3.org/2000/svg">
<g>
<path d="M15.5025 37.6564C15.1965 38.65 15.2985 39.8423 15.5025 41.2333C16.0124 43.8167 17.2363 47.1949 17.9502 50.8712H23.1517C23.8657 47.2942 25.0896 43.916 25.7015 41.2333C26.0075 39.8423 26.0075 38.5506 25.7015 37.6564C25.3955 36.7622 24.7836 36.0667 23.6617 35.3712H17.5423C16.3184 36.0667 15.7065 36.7622 15.5025 37.6564Z"/>
<path d="M27.5373 57.5282H13.4627C12.1368 57.5282 11.1169 58.5218 11.1169 59.7141V61.9H13.4627H27.5373H29.883V59.7141C29.883 58.5218 28.8632 57.5282 27.5373 57.5282Z"/>
<path d="M34.7786 2.1859H22.8458C22.8458 0.99359 21.8259 0 20.5 0C19.1741 0 18.1542 0.99359 18.1542 2.1859H6.22138L0 27.5224C0.81592 27.0256 1.63185 26.5288 2.65175 26.5288C4.07961 26.5288 4.89552 27.3237 5.60945 27.9199C6.32338 28.516 6.83333 28.7147 7.03731 28.7147C7.34328 28.7147 7.85323 28.4167 8.56716 27.9199C9.28109 27.4231 10.199 26.5288 11.5249 26.5288C12.8507 26.5288 13.7687 27.3237 14.4826 27.9199C15.1965 28.4167 15.7065 28.7147 16.0124 28.7147C16.1144 28.7147 16.3184 28.6154 16.6244 28.516C16.8283 28.4167 17.1343 28.1186 17.5423 27.9199C18.0522 27.5224 18.6642 26.9263 19.5821 26.7276C19.8881 26.6282 20.194 26.6282 20.5 26.6282C21.8259 26.6282 22.7438 27.4231 23.4577 28.0192C24.1716 28.516 24.6816 28.8141 24.9876 28.8141C25.2935 28.8141 25.8035 28.516 26.4154 28.0192C27.1293 27.4231 28.0472 26.6282 29.3731 26.6282C30.801 26.6282 31.6169 27.4231 32.3308 28.0192C32.6368 28.3173 32.9428 28.516 33.2487 28.6154C33.4527 28.7147 33.6567 28.8141 33.8607 28.8141C34.1667 28.8141 34.6766 28.516 35.2885 27.9199C36.0025 27.3237 36.9204 26.5288 38.2463 26.5288C39.2662 26.5288 40.0821 27.0256 40.898 27.5224L34.7786 2.1859Z"/>
<path d="M23.9677 53.0571H16.9304C16.2164 53.0571 15.8085 53.5539 15.8085 54.15C15.8085 54.7462 16.3184 55.243 16.9304 55.243H23.9677C24.6816 55.243 25.0896 54.7462 25.0896 54.15C25.1915 53.5539 24.6816 53.0571 23.9677 53.0571Z"/>
<path d="M20.5 28.7141C20.398 28.7141 20.194 28.8135 19.8881 28.9128C19.6841 29.0122 19.4801 29.2109 19.2761 29.3103V32.9865H21.6219V29.4096C21.1119 29.0122 20.704 28.7141 20.5 28.7141Z"/>
</g>
</svg>

<svg width="41" height="62" viewBox="0 0 41 62" xmlns="http://www.w3.org/2000/svg"><path d="M15.5 37.66c-.3.99-.2 2.18 0 3.57.51 2.59 1.74 5.96 2.45 9.64h5.2c.72-3.58 1.94-6.95 2.55-9.64.3-1.39.3-2.68 0-3.57-.3-.9-.92-1.6-2.04-2.29h-6.12c-1.22.7-1.83 1.4-2.04 2.29zm12.04 19.87H13.46c-1.32 0-2.34 1-2.34 2.18v2.19h18.76v-2.19c0-1.19-1.02-2.18-2.34-2.18zm7.24-55.34H22.85C22.85.99 21.83 0 20.5 0s-2.35 1-2.35 2.19H6.22L0 27.52c.82-.5 1.63-1 2.65-1 1.43 0 2.25.8 2.96 1.4.71.6 1.22.8 1.43.8.3 0 .81-.3 1.53-.8.71-.5 1.63-1.4 2.95-1.4 1.33 0 2.25.8 2.96 1.4.72.5 1.23.8 1.53.8.1 0 .3-.1.61-.2.2-.1.51-.4.92-.6.51-.4 1.12-1 2.04-1.2.3-.1.61-.1.92-.1 1.33 0 2.24.8 2.96 1.4.71.5 1.22.8 1.53.8.3 0 .81-.3 1.43-.8.7-.6 1.63-1.4 2.95-1.4 1.43 0 2.25.8 2.96 1.4.3.3.61.5.92.6.2.1.4.2.61.2.3 0 .82-.3 1.43-.9.71-.6 1.63-1.4 2.96-1.4 1.02 0 1.83.5 2.65 1L34.78 2.2zM23.97 53.06h-7.04c-.71 0-1.12.5-1.12 1.09 0 .6.5 1.1 1.12 1.1h7.04c.71 0 1.12-.5 1.12-1.1.1-.6-.4-1.1-1.12-1.1z"/><path d="M20.5 28.71c-.1 0-.3.1-.61.2-.2.1-.41.3-.61.4v3.68h2.34V29.4c-.5-.4-.92-.7-1.12-.7z"/></svg>
